symbols/web/filter_vintage/materialsymbolsrounded/filter_vintage_wght600grad200_20px.svg

<svg xmlns="http://www.w3.org/2000/svg" height="20" width="20"><path d="M9.938 19.688q-1.209 0-2.355-.75-1.145-.75-1.604-2.084-1.75.25-3.042-.635-1.291-.886-1.645-2.531-.292-.959-.115-1.938T2.104 10q-.771-.792-.948-1.833-.177-1.042.177-1.979.355-1.563 1.677-2.428 1.323-.864 3.011-.614.437-1.313 1.604-2.073Q8.792.312 10 .312t2.375.761q1.167.76 1.604 2.073 1.667-.229 3.021.646 1.354.875 1.667 2.396.354.895.156 1.968-.198 1.073-.927 1.844.729.771.906 1.771.177 1-.198 1.917-.333 1.562-1.666 2.489-1.334.927-3.021.677-.438 1.334-1.594 2.084-1.156.75-2.385.75Zm0-2.626q1.041 0 1.541-.885t.021-1.76l-.625-1.021q-.25.042-.479.073-.229.031-.438.031-.229 0-.437-.031l-.479-.073-.646 1.021q-.5.875.01 1.76.511.885 1.532.885ZM3.896 13.5q.479.896 1.521.906 1.041.011 1.541-.906l.584-1q-.146-.146-.282-.312-.135-.167-.26-.376-.104-.208-.208-.437t-.188-.479H5.417q-1.021 0-1.532.864-.51.865.011 1.74Zm9.125.021q.521.896 1.541.885 1.021-.01 1.521-.906.5-.875.011-1.74-.49-.864-1.511-.864h-1.187q-.084.229-.167.448-.083.218-.229.448-.125.187-.26.375-.136.187-.323.354ZM10 10Zm-3.396-.917q.084-.229.177-.448.094-.218.198-.427.125-.229.271-.406.146-.177.292-.323l-.584-1q-.5-.896-1.541-.896-1.042 0-1.521.896-.521.875-.011 1.74.511.864 1.532.864Zm7.979 0q1.021 0 1.5-.864.479-.865-.041-1.74-.5-.896-1.5-.896t-1.521.896l-.583.979q.166.146.312.334.146.187.25.396.146.25.24.468.093.219.156.427Zm-5.479-2.5q.271-.062.479-.083.209-.021.417-.021t.427.021q.219.021.49.083l.625-1.021q.541-.854.02-1.749-.52-.896-1.562-.896t-1.562.896q-.521.895 0 1.749Zm0 0q.271-.062.479-.083.209-.021.417-.021t.427.021q.219.021.49.083-.271-.062-.479-.083-.209-.021-.438-.021-.208 0-.417.021-.208.021-.479.083ZM7 11.812q-.104-.208-.208-.437t-.188-.479q.084.25.188.479.104.229.208.437.125.209.26.376.136.166.282.312-.146-.146-.282-.312-.135-.167-.26-.376Zm-.396-2.729q.084-.229.177-.448.094-.218.198-.427.125-.229.271-.416.146-.188.292-.313-.146.125-.292.313-.146.187-.271.396-.104.229-.198.447-.093.219-.177.448ZM9.958 13.5q-.229 0-.437-.031l-.479-.073.479.073q.208.031.437.031.209 0 .438-.031t.479-.073q-.25.042-.479.073-.229.031-.438.031Zm2.459-.979q.187-.167.323-.354.135-.188.26-.375.146-.23.229-.448.083-.219.167-.448-.084.229-.167.448-.083.218-.229.448-.125.187-.26.375-.136.187-.323.354Zm.979-3.438q-.063-.229-.156-.437-.094-.208-.24-.458-.104-.209-.25-.396-.146-.188-.312-.334.166.146.312.334.146.187.25.396.146.25.24.458.093.208.156.437ZM10 11.417q.583 0 1-.417.417-.417.417-1T11 9q-.417-.417-1-.417T9 9q-.417.417-.417 1T9 11q.417.417 1 .417ZM10 10Z"/></svg>

<svg xmlns="http://www.w3.org/2000/svg" height="20" width="20"><path d="M9.938 19.688Q8.729 19.688 7.583 18.938Q6.438 18.188 5.979 16.854Q4.229 17.104 2.937 16.219Q1.646 15.333 1.292 13.688Q1 12.729 1.177 11.75Q1.354 10.771 2.104 10Q1.333 9.208 1.156 8.167Q0.979 7.125 1.333 6.188Q1.688 4.625 3.01 3.76Q4.333 2.896 6.021 3.146Q6.458 1.833 7.625 1.073Q8.792 0.312 10 0.312Q11.208 0.312 12.375 1.073Q13.542 1.833 13.979 3.146Q15.646 2.917 17 3.792Q18.354 4.667 18.667 6.188Q19.021 7.083 18.823 8.156Q18.625 9.229 17.896 10Q18.625 10.771 18.802 11.771Q18.979 12.771 18.604 13.688Q18.271 15.25 16.938 16.177Q15.604 17.104 13.917 16.854Q13.479 18.188 12.323 18.938Q11.167 19.688 9.938 19.688ZM9.938 17.062Q10.979 17.062 11.479 16.177Q11.979 15.292 11.5 14.417L10.875 13.396Q10.625 13.438 10.396 13.469Q10.167 13.5 9.958 13.5Q9.729 13.5 9.521 13.469Q9.312 13.438 9.042 13.396L8.396 14.417Q7.896 15.292 8.406 16.177Q8.917 17.062 9.938 17.062ZM3.896 13.5Q4.375 14.396 5.417 14.406Q6.458 14.417 6.958 13.5L7.542 12.5Q7.396 12.354 7.26 12.188Q7.125 12.021 7 11.812Q6.896 11.604 6.792 11.375Q6.688 11.146 6.604 10.896H5.417Q4.396 10.896 3.885 11.76Q3.375 12.625 3.896 13.5ZM13.021 13.521Q13.542 14.417 14.562 14.406Q15.583 14.396 16.083 13.5Q16.583 12.625 16.094 11.76Q15.604 10.896 14.583 10.896H13.396Q13.312 11.125 13.229 11.344Q13.146 11.562 13 11.792Q12.875 11.979 12.74 12.167Q12.604 12.354 12.417 12.521ZM10 10Q10 10 10 10Q10 10 10 10Q10 10 10 10Q10 10 10 10Q10 10 10 10Q10 10 10 10Q10 10 10 10Q10 10 10 10ZM6.604 9.083Q6.688 8.854 6.781 8.635Q6.875 8.417 6.979 8.208Q7.104 7.979 7.25 7.802Q7.396 7.625 7.542 7.479L6.958 6.479Q6.458 5.583 5.417 5.583Q4.375 5.583 3.896 6.479Q3.375 7.354 3.885 8.219Q4.396 9.083 5.417 9.083ZM14.583 9.083Q15.604 9.083 16.083 8.219Q16.562 7.354 16.042 6.479Q15.542 5.583 14.542 5.583Q13.542 5.583 13.021 6.479L12.438 7.458Q12.604 7.604 12.75 7.792Q12.896 7.979 13 8.188Q13.146 8.438 13.24 8.656Q13.333 8.875 13.396 9.083ZM9.104 6.583Q9.375 6.521 9.583 6.5Q9.792 6.479 10 6.479Q10.208 6.479 10.427 6.5Q10.646 6.521 10.917 6.583L11.542 5.562Q12.083 4.708 11.562 3.813Q11.042 2.917 10 2.917Q8.958 2.917 8.438 3.813Q7.917 4.708 8.438 5.562ZM9.104 6.583Q9.375 6.521 9.583 6.5Q9.792 6.479 10 6.479Q10.208 6.479 10.427 6.5Q10.646 6.521 10.917 6.583Q10.646 6.521 10.438 6.5Q10.229 6.479 10 6.479Q9.792 6.479 9.583 6.5Q9.375 6.521 9.104 6.583ZM7 11.812Q6.896 11.604 6.792 11.375Q6.688 11.146 6.604 10.896Q6.688 11.146 6.792 11.375Q6.896 11.604 7 11.812Q7.125 12.021 7.26 12.188Q7.396 12.354 7.542 12.5Q7.396 12.354 7.26 12.188Q7.125 12.021 7 11.812ZM6.604 9.083Q6.688 8.854 6.781 8.635Q6.875 8.417 6.979 8.208Q7.104 7.979 7.25 7.792Q7.396 7.604 7.542 7.479Q7.396 7.604 7.25 7.792Q7.104 7.979 6.979 8.188Q6.875 8.417 6.781 8.635Q6.688 8.854 6.604 9.083ZM9.958 13.5Q9.729 13.5 9.521 13.469Q9.312 13.438 9.042 13.396Q9.312 13.438 9.521 13.469Q9.729 13.5 9.958 13.5Q10.167 13.5 10.396 13.469Q10.625 13.438 10.875 13.396Q10.625 13.438 10.396 13.469Q10.167 13.5 9.958 13.5ZM12.417 12.521Q12.604 12.354 12.74 12.167Q12.875 11.979 13 11.792Q13.146 11.562 13.229 11.344Q13.312 11.125 13.396 10.896Q13.312 11.125 13.229 11.344Q13.146 11.562 13 11.792Q12.875 11.979 12.74 12.167Q12.604 12.354 12.417 12.521ZM13.396 9.083Q13.333 8.854 13.24 8.646Q13.146 8.438 13 8.188Q12.896 7.979 12.75 7.792Q12.604 7.604 12.438 7.458Q12.604 7.604 12.75 7.792Q12.896 7.979 13 8.188Q13.146 8.438 13.24 8.646Q13.333 8.854 13.396 9.083ZM10 11.417Q10.583 11.417 11 11Q11.417 10.583 11.417 10Q11.417 9.417 11 9Q10.583 8.583 10 8.583Q9.417 8.583 9 9Q8.583 9.417 8.583 10Q8.583 10.583 9 11Q9.417 11.417 10 11.417Z"/></svg>
